X: 515
T: Mai bianshi
%%abc-version 2.0
%%abcx-abcm2ps-target-version 5.9.1 (29 Sep 2008)
%%abc-creator hum2abc beta
%%abcx-conversion-date 2013/10/02 07:52:30
%%abc-edited-by Helmut Schaffrath
%%humdrum-veritas 772644629
%%humdrum-veritas-data 3123339212
%%continueall 1
%%barnumbers 0
L: 1/8
M: 2/4
K: Bb
c'2c' f' [I:setbarnb 1]| 
d' c'b2 | 
c'2c'2 | 
d' bc'2 | 
d' d' d' d' | 
g c'b2 | 
g c'/ c'/ b g | 
f df2 | 
g c' b g | 
g c'/ c'/ b g | 
f df2 |]  



